static/img/common/ico-troubleshooting-a.svg

<svg width="14" height="27" viewBox="0 0 14 27" fill="none" xmlns="http://www.w3.org/2000/svg">
<path d="M10.68 21L9.38 17.22H4L2.72 21H0L5.24 6.66H8.16L13.4 21H10.68ZM7.48 11.34C7.42667 11.1533 7.34667 10.9 7.24 10.58C7.13333 10.26 7.02667 9.93333 6.92 9.6C6.82667 9.25333 6.75333 8.96667 6.7 8.74C6.63333 9.00667 6.54667 9.31333 6.44 9.66C6.34667 10.0067 6.25333 10.3333 6.16 10.64C6.08 10.9467 6.01333 11.18 5.96 11.34L4.7 15.02H8.72L7.48 11.34Z" fill="black"/>
</svg>

<svg xmlns="http://www.w3.org/2000/svg" width="14" height="27" fill="none" viewBox="0 0 14 27"><path fill="#000" d="m10.68 21-1.3-3.78H4L2.72 21H0L5.24 6.66h2.92L13.4 21zm-3.2-9.66q-.08-.28-.24-.76t-.32-.98a29 29 0 0 1-.22-.86q-.1.4-.26.92-.14.52-.28.98-.12.46-.2.7L4.7 15.02h4.02z"/></svg>
